public/assets/images/field-s06.svg

<svg width="19" height="18" viewBox="0 0 19 18" fill="none" xmlns="http://www.w3.org/2000/svg">
<path d="M4.58592 17.1175L4.58585 17.1174L0.535853 12.1607L0.535877 12.1607L0.533356 12.1577C0.447036 12.0553 0.376102 11.9304 0.326685 11.789C0.277276 11.6477 0.250949 11.4944 0.250025 11.3384C0.249102 11.1824 0.273611 11.0286 0.32139 10.8863L0.0849796 10.8069L0.32139 10.8863C0.369178 10.7439 0.438724 10.6175 0.524006 10.5134C0.609229 10.4094 0.70772 10.3306 0.812034 10.2786C0.916064 10.2267 1.02506 10.2018 1.13325 10.2031C1.24146 10.2044 1.35025 10.232 1.45377 10.2867C1.55756 10.3414 1.65506 10.4229 1.7388 10.5293L1.73877 10.5294L1.74166 10.5329L4.99517 14.5148L5.18876 14.7517L5.38235 14.5148L16.2888 1.16663C16.459 0.966807 16.6746 0.868789 16.8855 0.871389C17.0971 0.873998 17.3123 0.978057 17.48 1.1839C17.6488 1.39107 17.7504 1.67994 17.7522 1.98971C17.754 2.29877 17.6563 2.58915 17.4903 2.79963C17.49 2.8001 17.4896 2.80056 17.4892 2.80103L5.79167 17.1174L5.7916 17.1175C5.70745 17.2205 5.61022 17.2988 5.50719 17.3508C5.40445 17.4027 5.29677 17.4281 5.18981 17.4276L5.18771 17.4276C5.08075 17.4281 4.97307 17.4027 4.87033 17.3508C4.7673 17.2988 4.67007 17.2205 4.58592 17.1175Z" fill="#4F66EE" stroke="white" stroke-width="0.5"/>
</svg>

<svg width="19" height="18" fill="none" xmlns="http://www.w3.org/2000/svg"><path d="M4.586 17.117h0l-4.05-4.956h0l-.003-.003a1.17 1.17 0 01-.206-.369 1.395 1.395 0 01-.006-.903l-.236-.08.236.08a1.18 1.18 0 01.203-.373.888.888 0 01.288-.234.698.698 0 01.642.008.9.9 0 01.285.242h0l.003.004 3.253 3.982.194.237.193-.237L16.29 1.167c.17-.2.386-.298.596-.296.212.003.427.107.595.313.169.207.27.496.272.806.002.309-.096.6-.262.81V2.8L5.791 17.117h0a.886.886 0 01-.285.234.694.694 0 01-.317.077h-.002a.694.694 0 01-.318-.077.886.886 0 01-.284-.233z" fill="#4F66EE" stroke="#fff" stroke-width=".5"/></svg>
